images/sc-s-icon.svg

<svg width="24" height="24" viewBox="0 0 24 24" fill="none" xmlns="http://www.w3.org/2000/svg">
    <path d="M14 12.4336C14 12.1276 13.8599 11.8385 13.6198 11.6488L10.6198 9.27959C9.96402 8.76171 9 9.22878 9 10.0644V21.0004C9 21.5527 9.44772 22.0004 10 22.0004H13C13.5523 22.0004 14 21.5527 14 21.0004V12.4336Z" fill="#D4E5FB"/>
    <path d="M8 6C8 5.44772 7.55228 5 7 5H4C3.44772 5 3 5.44772 3 6V21C3 21.5523 3.44772 22 4 22H7C7.55228 22 8 21.5523 8 21V6Z" fill="#2A7DEC"/>
    <path d="M15 8.07322C15 7.7973 15.114 7.53365 15.315 7.34465L19.315 3.58397C19.9533 2.98385 21 3.43641 21 4.31253V20.9998C21 21.5521 20.5523 21.9998 20 21.9998H16C15.4477 21.9998 15 21.5521 15 20.9998V8.07322Z" fill="#2A7DEC"/>
    <path d="M22 20C22 19.4477 21.5523 19 21 19H17C16.4477 19 16 19.4477 16 20V21C16 21.5523 16.4477 22 17 22H21C21.5523 22 22 21.5523 22 21V20Z" fill="#D4E5FB"/>
    <path d="M13 20C13 19.4477 12.5523 19 12 19H3C2.44772 19 2 19.4477 2 20V21C2 21.5523 2.44772 22 3 22H12C12.5523 22 13 21.5523 13 21V20Z" fill="#2A7DEC"/>
</svg>

<svg width="24" height="24" fill="none" xmlns="http://www.w3.org/2000/svg"><path d="M14 12.434a1 1 0 0 0-.38-.785l-3-2.37a1 1 0 0 0-1.62.785V21a1 1 0 0 0 1 1h3a1 1 0 0 0 1-1v-8.566Z" fill="#D4E5FB"/><path d="M8 6a1 1 0 0 0-1-1H4a1 1 0 0 0-1 1v15a1 1 0 0 0 1 1h3a1 1 0 0 0 1-1V6ZM15 8.073a1 1 0 0 1 .315-.728l4-3.761c.638-.6 1.685-.148 1.685.729V21a1 1 0 0 1-1 1h-4a1 1 0 0 1-1-1V8.073Z" fill="#2A7DEC"/><path d="M22 20a1 1 0 0 0-1-1h-4a1 1 0 0 0-1 1v1a1 1 0 0 0 1 1h4a1 1 0 0 0 1-1v-1Z" fill="#D4E5FB"/><path d="M13 20a1 1 0 0 0-1-1H3a1 1 0 0 0-1 1v1a1 1 0 0 0 1 1h9a1 1 0 0 0 1-1v-1Z" fill="#2A7DEC"/></svg>
